build/img/sprites/student.svg

<svg width="24" height="24" viewBox="0 0 24 24" fill="none" xmlns="http://www.w3.org/2000/svg">
<path d="M21.2372 5.28849L12.2372 2.28849C12.0832 2.23717 11.9168 2.23717 11.7628 2.28849L2.76281 5.28849C2.61347 5.33828 2.48358 5.43379 2.39155 5.5615C2.29951 5.68921 2.24999 5.84264 2.25 6.00006V13.5001C2.25 13.699 2.32902 13.8897 2.46967 14.0304C2.61032 14.171 2.80109 14.2501 3 14.2501C3.19891 14.2501 3.38968 14.171 3.53033 14.0304C3.67098 13.8897 3.75 13.699 3.75 13.5001V7.04068L6.89906 8.08974C6.0624 9.44143 5.79634 11.0699 6.15931 12.6176C6.52229 14.1653 7.48462 15.5057 8.835 16.3444C7.1475 17.0063 5.68875 18.2035 4.62187 19.8404C4.56639 19.9228 4.52785 20.0155 4.50849 20.113C4.48914 20.2105 4.48936 20.3109 4.50913 20.4083C4.52891 20.5057 4.56785 20.5982 4.62369 20.6804C4.67953 20.7626 4.75116 20.8329 4.83441 20.8872C4.91766 20.9415 5.01087 20.9787 5.10863 20.9967C5.20639 21.0147 5.30674 21.013 5.40386 20.9918C5.50097 20.9707 5.59291 20.9304 5.67433 20.8734C5.75575 20.8164 5.82502 20.7438 5.87813 20.6597C7.29094 18.4922 9.52219 17.2501 12 17.2501C14.4778 17.2501 16.7091 18.4922 18.1219 20.6597C18.2319 20.8232 18.4018 20.9369 18.5949 20.9761C18.788 21.0153 18.9888 20.9769 19.1539 20.8693C19.3189 20.7616 19.435 20.5933 19.4769 20.4008C19.5189 20.2083 19.4834 20.0069 19.3781 19.8404C18.3112 18.2035 16.8469 17.0063 15.165 16.3444C16.5141 15.5057 17.4755 14.1662 17.8384 12.6196C18.2013 11.0731 17.9361 9.44573 17.1009 8.09443L21.2372 6.71631C21.3866 6.66655 21.5165 6.57105 21.6086 6.44334C21.7006 6.31563 21.7502 6.16218 21.7502 6.00474C21.7502 5.8473 21.7006 5.69386 21.6086 5.56615C21.5165 5.43843 21.3866 5.34294 21.2372 5.29318V5.28849ZM16.5 11.2501C16.5002 11.9615 16.3317 12.6628 16.0084 13.2965C15.6851 13.9302 15.2161 14.4782 14.6399 14.8956C14.0638 15.313 13.3969 15.5878 12.694 15.6975C11.9911 15.8072 11.2722 15.7487 10.5962 15.5268C9.92031 15.3049 9.30663 14.9258 8.80555 14.4208C8.30448 13.9158 7.93028 13.2991 7.71367 12.6215C7.49705 11.9438 7.44419 11.2245 7.55942 10.5225C7.67465 9.82043 7.95469 9.15572 8.37656 8.58287L11.7628 9.70787C11.9168 9.75919 12.0832 9.75919 12.2372 9.70787L15.6234 8.58287C16.1932 9.35537 16.5005 10.2901 16.5 11.2501ZM12 8.20974L5.37187 6.00006L12 3.79037L18.6281 6.00006L12 8.20974Z" fill="white"/>
</svg>

<svg width="24" height="24" viewBox="0 0 24 24" fill="none" xmlns="http://www.w3.org/2000/svg"><path d="M21.237 5.288l-9-3a.75.75 0 00-.474 0l-9 3A.75.75 0 002.25 6v7.5a.75.75 0 001.5 0V7.04L6.9 8.09a6 6 0 001.935 8.254c-1.688.662-3.146 1.86-4.213 3.496a.75.75 0 101.256.82c1.413-2.168 3.644-3.41 6.122-3.41 2.478 0 4.71 1.242 6.122 3.41a.75.75 0 001.256-.82c-1.067-1.637-2.531-2.834-4.213-3.496a6 6 0 001.936-8.25l4.136-1.378a.75.75 0 000-1.423v-.005zM16.5 11.25a4.5 4.5 0 11-8.123-2.667l3.386 1.125a.75.75 0 00.474 0l3.386-1.125a4.49 4.49 0 01.877 2.667zM12 8.21L5.372 6 12 3.79 18.628 6 12 8.21z" fill="#fff"/></svg>
